X:1
T:A Shepherd Band Their Flocks
T:A Shepherd Band Their Flocks
T:Anonymous, before 1912
T:Michael Praetorius, 1609
T:Public Domain Courtesy of the Cyber Hymnal™
T:Public Domain Courtesy of the Cyber Hymnal™
C:Anonymous, before 1912
Z:Public Domain
Z:Courtesy of the Cyber Hymnal™
%%score ( 1 2 ) ( 3 4 )
L:1/8
Q:1/4=110
M:4/4
K:G
V:1 treble 
V:2 treble 
V:3 bass 
V:4 bass 
V:1
 [Dd]2 | [Dd]2 [DB]2 [EG]2 [FA]2 | ([DB][Ec] [Fd]4) [DB]2 | [Ac]2 [GB]2 z2 [Gd]2 | %4
w: 1.~A|shep- herd band their|flocks * * are|keep- ing, And|
w: 2.~Glad|tid- ings of great|joy * * he|bring- eth, The|
w: 3.~“To|you, this day, is|born * * a|Sav- ior, Your|
w: 4.~“On|earth be peace with|mer- * * cy|blend- ing, Good-|
w: 5.~Through|field and wood the|song * * re-|sound- eth, O’er|
w: 6.~The|shep- herds view the|host * * re-|turn- ing, Their|
w: 7.~In|haste they seek the|heav’n- * * ly|Stran- ger; They|
w: 8.~Now|ev- ery voice with|rap- * * ture|swell- eth, For|
 [Fd]3 [GB] [EA]3 [EG] | [Gc][FA] [Fd]2 !fermata![DB]2 [DB]2 | [GB][GB][GB][Gc] [Fd]2 [Gd]2 | %7
w: gen- tle lambs are|sweet- ly sleep- ing; When|sud- den- ly they all be-|
w: a- zure vault with|an- thems ring- eth; Im-|man- u- el a- wakes the|
w: pro- phet, priest and|king for- ev- er; All|glo- ry be to God,” they|
w: will to men, and|love un- end- ing”; Thus|sweet- ly sing the an- gel|
w: hill and vale the|chor- us bound- eth; Ex-|ult- ing- ly the e- choes|
w: hearts with ho- ly|ar- dor burn- ing; To|Beth- le- hem they wend their|
w: find the Babe laid|in a man- ger; With|won- der and with awe they|
w: Christ the Lord with|mor- tals dwell- eth; Let|men and an- gels Him a-|
 d2 cB A4 | (G2 F[DE] !fermata!D2) D2 x2 | [DG]2 [EG]2 [EA]2 [FA]2 | %10
w: hold * * *|An * * * an-|gel in bright robes,|
w: song, * * *|And * * * count-|less hosts the glo-|
w: cry; * * *|“All * * * glo-|ry be to God,”|
w: throng, * * *|And * * * all|the heav’n- ly host|
w: roll, * * *|And * * * hymns|of tri- umph spread|
w: way, * * *|Re- * * * peat-|ing with glad tongues|
w: fall, * * *|And * * * joy-|ful- ly a- dore|
w: dore, * * *|And * * * shout|their loud ho- san-|
 ([GB][Ac] [Bd]4) [GB]2"^riten." | ([GB]2 [FA][EG] [GB]2) [DA]2 | [DG]4 z2 |] %13
w: with * * harp|of * * * gold.||
w: rious * * theme|pro- * * * long.||
w: let * * earth|re- * * * ply.||
w: re- * * hearse|the * * * song.||
w: from * * pole|to * * * pole.||
w: th’an- * * gel-|ic * * * lay.||
w: Him, * * Lord|of * * * all.||
w: nas * * ev-|er- * * * more.||
V:2
 x2 | x8 | x8 | x8 | x8 | x8 | x8 | F8 | B,3 D2 D2 x3 | x8 | x8 | x8 | x6 |] %13
V:3
 [G,B,]2 | [F,A,]2 [G,B,]2 [E,B,]2 [D,D]2 | ([G,B,]2 [F,A,][E,G,] [D,A,]2) [G,B,]2 | %3
 [A,,E,]2 E,2 z2 [B,,D]2 | [D,A,]3 E, [A,C]3 [E,B,] | [C,E,]D, [D,A,]2 !fermata![G,,G,]2 [G,B,]2 | %6
 [G,D][G,D][G,D][E,G,] [D,A,]2 [B,,B,]2 | A,4 D4 | G,8 !fermata![G,B,]2 | %9
 [G,B,]2 [E,B,]2 [A,C]2 [D,D]2 | D6 [E,D]2 | (B,4 D2) [D,C]2 | [G,,G,B,]4 z2 |] %13
V:4
 x2 | x8 | x8 | x2 E,2 x4 | x3 E, x4 | x D, x6 | x8 | D,8 | (E,2 D,C, B,,2) x4 | x8 | %10
 (G,2 F,E, D,2) x2 | G,6 x2 | x6 |] %13

